svg/view_column_outline.svg

<svg xmlns="http://www.w3.org/2000/svg" viewBox="0 0 24 24"><path d="M4 5v13h17V5zm10 2v9h-3V7zM6 7h3v9H6zm13 9h-3V7h3z"/></svg>

<?xml version="1.0" encoding="UTF-8"?><!DOCTYPE svg PUBLIC "-//W3C//DTD SVG 1.1//EN" "http://www.w3.org/Graphics/SVG/1.1/DTD/svg11.dtd"><svg xmlns="http://www.w3.org/2000/svg" xmlns:xlink="http://www.w3.org/1999/xlink" version="1.1" id="mdi-view-column-outline" width="24" height="24" viewBox="0 0 24 24"><path d="M4 5V18H21V5H4M14 7V16H11V7H14M6 7H9V16H6V7M19 16H16V7H19V16Z" /></svg>
